X: 30914
T: Over The Hills And Far Away
R: jig
M: 6/8
K: Eminor
|:GEE AEE|BEE cBA|BEE EDE|~G3 FEF|
GEE AEE|BEE cAB|cAA ABc|1 d2B AGF:|2 d2B AGA||
|:Bee e2f|edB cBA|Bee e2f|a2B d3|
Bee e2f|gfe fed|edB ABc|1 d2B AGA:|2 d2B AGF||

